share/git-cola/icons/document-save-symbolic.svg

<svg xmlns="http://www.w3.org/2000/svg" width="16" height="16">
    <g fill="#000">
        <path d="M4.49 8.994a.5.5 0 0 0-.406.229l-1 1.5a.5.5 0 1 0 .832.554l1-1.5a.5.5 0 0 0-.426-.783zm7.004 0a.5.5 0 0 0-.41.783l1 1.5a.5.5 0 1 0 .832-.554l-1-1.5a.5.5 0 0 0-.422-.229z" style="line-height:normal;font-variant-ligatures:normal;font-variant-position:normal;font-variant-caps:normal;font-variant-numeric:normal;font-variant-alternates:normal;font-feature-settings:normal;text-indent:0;text-align:start;text-decoration-line:none;text-decoration-style:solid;text-decoration-color:#000;text-transform:none;text-orientation:mixed;shape-padding:0;isolation:auto;mix-blend-mode:normal;marker:none" color="#bebebe" font-weight="400" font-family="sans-serif" white-space="normal" overflow="visible"/>
        <path d="M7 1v5.563L5.719 5.28A1.015 1.015 0 0 0 5 5H4v1c0 .265.093.53.281.719l3 3 .282.281h.875l.28-.281 3-3C11.908 6.53 12 6.265 12 6V5h-1c-.265 0-.53.093-.719.281L9 6.563V1z" style="line-height:normal;-inkscape-font-specification:'Bitstream Vera Sans';text-indent:0;text-align:start;text-decoration-line:none;text-transform:none;marker:none" color="#000" font-weight="400" font-family="Bitstream Vera Sans" overflow="visible"/>
        <path d="M3 11v4h10v-4zm3.344 1.438a.651.651 0 0 1 .062 0c.291-.056.6.203.594.5V13h2v-.063a.52.52 0 0 1 .5-.507.52.52 0 0 1 .5.507V13c0 .545-.455 1-1 1H7c-.545 0-1-.455-1-1v-.063a.515.515 0 0 1 .344-.5z" style="marker:none" color="#000" overflow="visible" fill-rule="evenodd"/>
    </g>
</svg>

<svg xmlns="http://www.w3.org/2000/svg" width="22" height="22" version="1.1">
  <g transform="matrix(1.9967546,0,0,1.4285714,-4.9740367,-0.4285714)">
    <path
       d="M 4.49,8.994 A 0.5,0.5 0 0 0 4.084,9.223 l -1,1.5 a 0.5,0.5 0 1 0 0.832,0.554 l 1,-1.5 A 0.5,0.5 0 0 0 4.49,8.994 Z m 7.004,0 a 0.5,0.5 0 0 0 -0.41,0.783 l 1,1.5 a 0.5,0.5 0 1 0 0.832,-0.554 l -1,-1.5 A 0.5,0.5 0 0 0 11.494,8.994 Z"
       fill="#000000" />
    <path
       d="M 7,1 V 6.563 L 5.719,5.28 A 1.015,1.015 0 0 0 5,5 H 4 v 1 c 0,0.265 0.093,0.53 0.281,0.719 l 3,3 L 7.563,10 h 0.875 l 0.28,-0.281 3,-3 C 11.908,6.53 12,6.265 12,6 V 5 H 11 C 10.735,5 10.47,5.093 10.281,5.281 L 9,6.563 V 1 Z"
       fill="#000000" />
    <path
       d="m 3,11 v 4 h 10 v -4 z m 3.344,1.438 a 0.651,0.651 0 0 1 0.062,0 c 0.291,-0.056 0.6,0.203 0.594,0.5 V 13 H 9 V 12.937 A 0.52,0.52 0 0 1 9.5,12.43 0.52,0.52 0 0 1 10,12.937 V 13 c 0,0.545 -0.455,1 -1,1 H 7 C 6.455,14 6,13.545 6,13 v -0.063 a 0.515,0.515 0 0 1 0.344,-0.5 z"
       fill="#000000" />
  </g>
</svg>
